X: 28301
T: Mrs.Rose Of Kilravock's
R: jig
M: 6/8
K: Dmajor
A,|D>DD dA=c|BAG FGA|BAG FED|CDE A,B,C|
DED d2 =c|BAG FGA|B2A B/c/dB|AFD D2:|
f/e/|d2 d dAF|ABA Afe|ded dAF|Eee e2
f|ded dAA|gag f2 e|fge f/g/ae|fdd d2:|

